X:1
T: The Golden Wedding Hornpipe
C:
R:Reel
Q: 232
K:D
M:4/4
L:1/8
|:Ad dA Bd gb|af ba gf ed|ga ba gf ed|dc fe dc B_B|
Ad dA Bd gb|af ba gf ed|d'c' ba gf ed|1cA Bc d2 d2:|2cA Bc d2 ag|
|:fa da fa da|gb eb gb eb|ga ge cA BA|ab af dA BA|
fa da fa da|gb eb gb eb|ab c'b ag fe|1d2 d'2 d2 ag:|2d2 d'2 d4||
